X: 10563
M: C|
L: 1/8
K: A
((3uefg) | aece Acea | fdBG A2(Bc) | (de)fe (dc)BA | GAFG
E2((3efg) | aece Acea | fdBG A2(Bc) | dfed cBAG | B2A2 A2 :|
|: (ued) | ceAe ceAe | dfBf dfBf | ceAe ceAe | GBEB


